icons/light/log.svg

<svg width="16" height="16" viewBox="0 0 16 16" fill="none" xmlns="http://www.w3.org/2000/svg">
<path d="M9.70703 1.29297L12.707 4.29297L13 5V14L12 15H10V14H12V6H8V2H3V10H2V2L3 1H9L9.70703 1.29297ZM10.875 9.875H4.125V9.125H10.875V9.875ZM10.875 8H4.125V7.25H10.875V8ZM9 5H12L9 2V5Z" fill="#424242"/>
<path d="M0.476923 15V11.4462H1.31795V14.3359H2.85897L2.77179 15H0.476923ZM6.03771 13.2205C6.03771 13.5966 5.98386 13.9248 5.87617 14.2051C5.76848 14.4838 5.60865 14.7009 5.39668 14.8564C5.18643 15.0103 4.92574 15.0872 4.61463 15.0872C4.30523 15.0872 4.04455 15.012 3.83258 14.8615C3.62062 14.7094 3.46079 14.494 3.35309 14.2154C3.2454 13.9368 3.19156 13.6051 3.19156 13.2205C3.19156 12.8444 3.2454 12.5171 3.35309 12.2385C3.46079 11.9598 3.62062 11.7436 3.83258 11.5897C4.04455 11.4342 4.30523 11.3564 4.61463 11.3564C4.92574 11.3564 5.18643 11.4316 5.39668 11.5821C5.60865 11.7325 5.76848 11.947 5.87617 12.2256C5.98386 12.5043 6.03771 12.8359 6.03771 13.2205ZM5.17617 13.2205C5.17617 12.7829 5.13258 12.465 5.0454 12.2667C4.95822 12.0684 4.81463 11.9692 4.61463 11.9692C4.41463 11.9692 4.27104 12.0692 4.18386 12.2692C4.09668 12.4675 4.05309 12.7846 4.05309 13.2205C4.05309 13.6581 4.09754 13.9761 4.18643 14.1744C4.27532 14.3726 4.41805 14.4718 4.61463 14.4718C4.81976 14.4718 4.96421 14.3718 5.04797 14.1718C5.13344 13.9701 5.17617 13.653 5.17617 13.2205ZM7.82157 15.0872C7.48482 15.0872 7.20106 15.0162 6.97029 14.8744C6.73952 14.7308 6.56431 14.5205 6.44465 14.2436C6.3267 13.965 6.26773 13.6222 6.26773 13.2154C6.26773 12.9128 6.30961 12.6462 6.39337 12.4154C6.47884 12.1829 6.59679 11.9889 6.74722 11.8333C6.89764 11.6761 7.07286 11.5573 7.27286 11.4769C7.47286 11.3966 7.68824 11.3564 7.91901 11.3564C8.17884 11.3564 8.39764 11.3966 8.57542 11.4769C8.7532 11.5573 8.91132 11.6632 9.04978 11.7949L8.60875 12.2513C8.50106 12.1556 8.39764 12.0846 8.2985 12.0385C8.19935 11.9923 8.08653 11.9692 7.96004 11.9692C7.84038 11.9692 7.73012 11.9932 7.62927 12.041C7.53012 12.0872 7.44294 12.1607 7.36773 12.2615C7.29422 12.3607 7.23696 12.4897 7.19593 12.6487C7.15491 12.806 7.1344 12.9966 7.1344 13.2205C7.1344 13.5299 7.15918 13.7761 7.20875 13.959C7.26004 14.1419 7.33696 14.2735 7.43952 14.3538C7.54209 14.4325 7.672 14.4718 7.82927 14.4718C7.91303 14.4718 7.99166 14.4624 8.06516 14.4436C8.13867 14.4231 8.20704 14.3966 8.27029 14.3641V13.5513H7.82414L7.74209 12.9615H9.06516V14.7282C8.88739 14.8376 8.69593 14.9248 8.49081 14.9897C8.28739 15.0547 8.06431 15.0872 7.82157 15.0872Z" fill="#424242"/>
</svg>

<svg xmlns="http://www.w3.org/2000/svg" width="16" height="16" fill="#424242" xmlns:v="https://vecta.io/nano"><path d="M9.707 1.293l3 3L13 5v9l-1 1h-2v-1h2V6H8V2H3v8H2V2l1-1h6l.707.293zm1.168 8.582h-6.75v-.75h6.75v.75zm0-1.875h-6.75v-.75h6.75V8zM9 5h3L9 2v3zM.477 15v-3.554h.841v2.89h1.541L2.772 15H.477zm5.561-1.78c0 .376-.054.704-.162.985s-.268.496-.479.651-.471.231-.782.231-.57-.075-.782-.226a1.37 1.37 0 0 1-.479-.646c-.107-.279-.162-.61-.162-.995 0-.376.054-.703.162-.982a1.4 1.4 0 0 1 .479-.649c.212-.155.473-.233.782-.233s.572.075.782.226a1.38 1.38 0 0 1 .479.643 2.77 2.77 0 0 1 .162.995zm-.862 0c0-.438-.044-.755-.131-.954s-.231-.297-.431-.297-.344.1-.431.3-.131.515-.131.951.044.756.133.954.232.297.428.297c.205 0 .35-.1.433-.3s.128-.519.128-.951zm2.645 1.867c-.337 0-.621-.071-.851-.213s-.406-.354-.526-.631-.177-.621-.177-1.028a2.34 2.34 0 0 1 .126-.8 1.62 1.62 0 0 1 .354-.582 1.49 1.49 0 0 1 .526-.356 1.72 1.72 0 0 1 .646-.12c.26 0 .479.04.656.12s.336.186.474.318l-.441.456a1.31 1.31 0 0 0-.31-.213c-.099-.046-.212-.069-.338-.069a.76.76 0 0 0-.331.072c-.101.048-.186.12-.262.22s-.131.228-.172.387-.062.348-.062.572a2.93 2.93 0 0 0 .074.739c.051.183.128.315.231.395s.232.118.39.118a.95.95 0 0 0 .236-.028c.074-.021.142-.047.205-.079v-.813h-.446l-.082-.59h1.323v1.767a2.57 2.57 0 0 1-.574.261 2.19 2.19 0 0 1-.669.098z"/></svg>
